X: 1
T: O Maria, Mari   [Gm,G]
C: E. di Capua (1899)
N: Words: Vincenzo Russo
N: Music: Eduardo di Capua (1865-1917)
%: Italy
R: waltz
Z: 1999 John Chambers <jc@trillian.mit.edu>
M: 6/8
L: 1/8
K: Gm
% %vocalspace 20pt
"Intro"[|]A/B/cd \
| "Gm"Bd2 "D7"A/B/cd | "Gm"Bd2 "D7"^f/g/ab \
| "Gm"gd2 "D7"A/B/cd | "Gm"G3 z3 |  z3 z3 ||
"verse"\
|: "Gm"B3- "D7"BA/G/^F/A/ |  "Gm"G/^F/G2- "(G7)"G2z |  "Cm"G3- GG/^F/G/E/ |
w: 1.~A-*r\`a-pe-te fe-ne-*sta!* Fam-*me~af-fac-ci\`a~a Ma-
w: Nun* tro-vo n'o-ra~'e pa-*ce:* 'a* not-te~'a fac-cio
"Gm"D/^C/D2- D2z | "D7"C3- CC/=B,/C/D/ |  "Gm"_B,3 B,2z |  "Cm"A,3- "D7"A,A,/^G,/A,/B,/ |
w: ri-*a,* ca* ston-go 'mmie-z'a vi-a spe-*ru-to d'a ve-
w: juor-*no,* sem-*pe' st\`a cc\`a at-tuor-no, spe-*ran-no~'e ce par-
|1 "Gm"G,3 z3 :|2 [K:=B=e][K:G] "G"G,3 "refrain"::\
z[GB,][AC] | "G"[G3-B,3-] "(D7)"[GB,][EC][FD] | "G"[D3-B,3-] [DB,][DB,][EB,] \
| [EB,][EB,][FB,] [FB,][FB,][DB,] | "Am"[E3-C3-] [E3C3] |
w: d\`e...| la! | O Ma-ri-*a, Ma-ri,* quan-ta suon-no ca per-do pe' te!_
| "D7"[F3D3] [G2E2][AF] | (3[F/D][G/E][F/D] [E2-C2-] [EC][EC][EC] \
| [FD][FD][FD] [FD][GE]>[AF] | "G"(3[E/C][F/D][E/C] [D2-B,2-] [DB,][GB,][AC] |
w: Fam-me~ad-dur-mi,____ ab-brac-cia-to nu po-co cu-te!____ O Ma-
| "G"[G3-B,3-] "(D7)"[GB,][EC][FD] | "G"[B,3-D3-] [B,D][GB,][AC] \
| "E7"[BD][BD]>[^A^C] [BD][cE][d=F] | "Am"(3[B/D][c/E][B/D][A2-C2-] [AC][AC][BD] |
w: ri-*a, Ma-ri* quan-ta suon-no ca per-do pe' te!____**
| "C"[c3E3] "Cm"[A2_E2C2][BEC] | "G"[G3-B,3D3-] [GB,D][EC][FD] \
| "D7"[D3-C3-] [DC][AFC][BFC] | "G"{BA}[G3B,3D3] z3 | z3 z3 |]
w: Fam-me~ad-dur-mi,* O Ma-ri-*a, Ma-ri!

%%sep 1 1 400


